rospo-light/16x16/actions/exchange-positions-clockwise.svg

<svg height="16" viewBox="0 0 16 16" width="16" xmlns="http://www.w3.org/2000/svg"><path d="m0 0v7h8v-7zm9 1.078125v3.921875h1v-2.6445312c2.393.8460499 3.9948 3.1064312 4 5.6445312h1c-.003-3.4773-2.5584-6.425075-6-6.921875zm-8 6.921875c.003 3.4773 2.5584 6.425075 6 6.921875v-3.921875h-1v2.644531c-2.393-.84605-3.9948-3.106431-4-5.644531zm11.5 1a3.5 3.5 0 0 0 -3.5 3.5 3.5 3.5 0 0 0  .6992188 2.09375l.7167972-.716797a2.5 2.5 0 0 1 -.4199222-1.369141 2.5 2.5 0 0 1 2.5000002-2.5 2.5 2.5 0 0 1 1.376953.416016l.716797-.7167968a3.5 3.5 0 0 0 -2.09961-.7011718zm2.804688 1.398438-.003907.007812-.716797.716797a2.5 2.5 0 0 1  .419922 1.369141 2.5 2.5 0 0 1 -2.5 2.5 2.5 2.5 0 0 1 -1.376953-.416016l-.716797.716797a3.5 3.5 0 0 0 2.09375.699219 3.5 3.5 0 0 0 3.5-3.5 3.5 3.5 0 0 0 -.699218-2.09375z" fill="#5c616c"/></svg>

<?xml version="1.0" encoding="UTF-8" standalone="no"?>
<svg xmlns="http://www.w3.org/2000/svg" width="22" height="22" viewBox="0 0 22 22">
 <defs>
  <style type="text/css" id="current-color-scheme">
   .ColorScheme-Text { color:#5c616c; } .ColorScheme-Highlight { color:#5294e2; }
  </style>
 </defs>
 <path style="fill:currentColor;opacity:1" class="ColorScheme-Text" transform="translate(3 3)" d="M 0 0 L 0 7 L 8 7 L 8 0 L 0 0 z M 9 1.078125 L 9 5 L 10 5 L 10 2.3554688 C 12.393 3.2015187 13.9948 5.4619 14 8 L 15 8 C 14.997 4.5227 12.4416 1.574925 9 1.078125 z M 1 8 C 1.003 11.4773 3.5584 14.425075 7 14.921875 L 7 11 L 6 11 L 6 13.644531 C 3.607 12.798481 2.0052 10.5381 2 8 L 1 8 z M 12.5 9 A 3.5 3.5 0 0 0 9 12.5 A 3.5 3.5 0 0 0 9.6992188 14.59375 L 10.416016 13.876953 A 2.5 2.5 0 0 1 9.9960938 12.507812 A 2.5 2.5 0 0 1 12.496094 10.007812 A 2.5 2.5 0 0 1 13.873047 10.423828 L 14.589844 9.7070312 A 3.5 3.5 0 0 0 12.490234 9.0058594 L 12.5 9 z M 15.304688 10.398438 L 15.300781 10.40625 L 14.583984 11.123047 A 2.5 2.5 0 0 1 15.003906 12.492188 A 2.5 2.5 0 0 1 12.503906 14.992188 A 2.5 2.5 0 0 1 11.126953 14.576172 L 10.410156 15.292969 A 3.5 3.5 0 0 0 12.503906 15.992188 A 3.5 3.5 0 0 0 16.003906 12.492188 A 3.5 3.5 0 0 0 15.304688 10.398438 z"/>
</svg>
